X:200
T:Fanny Power
M:3/4
L:1/4
K:G
D | G2 D | G A B | c2 B | A2 G | 
F2 E | D2 E | F2 G | A2 c | 
B>A G | B c d | e2 A | A2 G | 
F2 E | D E F | G3 | G2 :|| 
d | d B/c/ d | d B/c/ d | G>A G | G A B | 
e c/d/ e | e c/d/ e | A2 A | 
A2 c | B c d | ef g | fg a | d2 c | 
B>A G | A c F | G>A G | G2 :|| 

